_includes/icons/ios-pinterest-logo.svg

<svg fill="#666" height="50" viewBox="0 0 50 50" width="50" xmlns="http://www.w3.org/2000/svg"><path d="m25 2c-12.690705 0-23 10.309295-23 23s10.309295 23 23 23 23-10.309295 23-23-10.309295-23-23-23zm0 2c11.609824 0 21 9.390176 21 21s-9.390176 21-21 21-21-9.390176-21-21 9.390176-21 21-21zm.570312 7c-7.645 0-12.570312 5.419438-12.570312 10.648438 0 5.102 2.824016 6.299578 3.416016 6.642578.591.346 1.010578.102812 1.142578-.367188l.355468-1.425781s.164891-.378438-.162109-.773438c-.403-.486-1.273437-1.371171-1.273437-3.576171 0-3.932 3.104421-8.214844 8.732422-8.214844 5.524 0 7.416015 3.597218 7.416015 6.574218 0 3.702-1.773578 9.236329-5.517578 9.236329-2.325 0-2.994141-1.793875-2.994141-2.671875-.015-.297.053032-.596282.082032-.738282.029-.141.97439-3.151609 1.27539-4.224609.676-2.405.097719-4.40625-2.113281-4.40625-3.117 0-4.239094 4.387359-2.871094 7.193359l-2.224609 9.107422s-.307188 1.491094-.367188 2.371094c-.092 1.351.100016 3.349312.166016 3.945312.048.432001.049094.638735.246094.677735.197.038.531734-.295313.802734-.695313.34-.504 1.496797-2.136781 1.966797-3.175781.419-.927.493734-.950797.927734-2.591797.434-1.642 1.019532-3.949218 1.019532-3.949218s1.220578 2.136718 4.517578 2.136718c4.689 0 9.457031-4.082797 9.457031-11.716797 0-6.188-5.360687-10.005859-11.429688-10.005859z"/></svg>

<svg xmlns="http://www.w3.org/2000/svg" viewBox="0 0 50 50" width="50" height="50" fill="#666"><path style="line-height:normal;text-indent:0;text-align:start;text-decoration-line:none;text-decoration-style:solid;text-decoration-color:#000;text-transform:none;block-progression:tb;isolation:auto;mix-blend-mode:normal" d="M 25 2 C 12.309295 2 2 12.309295 2 25 C 2 37.690705 12.309295 48 25 48 C 37.690705 48 48 37.690705 48 25 C 48 12.309295 37.690705 2 25 2 z M 25 4 C 36.609824 4 46 13.390176 46 25 C 46 36.609824 36.609824 46 25 46 C 13.390176 46 4 36.609824 4 25 C 4 13.390176 13.390176 4 25 4 z M 25.570312 11 C 17.925312 11 13 16.419438 13 21.648438 C 13 26.750438 15.824016 27.948016 16.416016 28.291016 C 17.007016 28.637016 17.426594 28.393828 17.558594 27.923828 L 17.914062 26.498047 C 17.914062 26.498047 18.078953 26.119609 17.751953 25.724609 C 17.348953 25.238609 16.478516 24.353438 16.478516 22.148438 C 16.478516 18.216438 19.582937 13.933594 25.210938 13.933594 C 30.734938 13.933594 32.626953 17.530812 32.626953 20.507812 C 32.626953 24.209812 30.853375 29.744141 27.109375 29.744141 C 24.784375 29.744141 24.115234 27.950266 24.115234 27.072266 C 24.100234 26.775266 24.168266 26.475984 24.197266 26.333984 C 24.226266 26.192984 25.171656 23.182375 25.472656 22.109375 C 26.148656 19.704375 25.570375 17.703125 23.359375 17.703125 C 20.242375 17.703125 19.120281 22.090484 20.488281 24.896484 L 18.263672 34.003906 C 18.263672 34.003906 17.956484 35.495 17.896484 36.375 C 17.804484 37.726 17.9965 39.724312 18.0625 40.320312 C 18.1105 40.752313 18.111594 40.959047 18.308594 40.998047 C 18.505594 41.036047 18.840328 40.702734 19.111328 40.302734 C 19.451328 39.798734 20.608125 38.165953 21.078125 37.126953 C 21.497125 36.199953 21.571859 36.176156 22.005859 34.535156 C 22.439859 32.893156 23.025391 30.585938 23.025391 30.585938 C 23.025391 30.585938 24.245969 32.722656 27.542969 32.722656 C 32.231969 32.722656 37 28.639859 37 21.005859 C 37 14.817859 31.639313 11 25.570312 11 z"/></svg>
